assets/sonr-icons/ai.svg

<svg xmlns="http://www.w3.org/2000/svg" width="24" height="24" fill="none" viewBox="0 0 24 24"><path fill="#000" d="M17 8C17.552 8 18 7.552 18 7V6H19C19.552 6 20 5.552 20 5C20 4.448 19.552 4 19 4H18V3C18 2.448 17.552 2 17 2C16.448 2 16 2.448 16 3V4H15C14.448 4 14 4.448 14 5C14 5.552 14.448 6 15 6H16V7C16 7.552 16.448 8 17 8ZM20 19C20 18.448 19.552 18 19 18H18V17C18 16.448 17.552 16 17 16C16.448 16 16 16.448 16 17V18H15C14.448 18 14 18.448 14 19C14 19.552 14.448 20 15 20H16V21C16 21.552 16.448 22 17 22C17.552 22 18 21.552 18 21V20H19C19.552 20 20 19.552 20 19ZM8.59398 7.198C8.84898 5.598 11.151 5.598 11.407 7.198C11.685 8.945 13.055 10.314 14.802 10.593C16.402 10.848 16.402 13.151 14.802 13.406C13.055 13.684 11.686 15.055 11.408 16.801C11.153 18.401 8.84998 18.401 8.59498 16.801C8.31698 15.054 6.94698 13.685 5.20098 13.406C3.60098 13.151 3.60098 10.848 5.20098 10.593C6.94798 10.315 8.31698 8.944 8.59498 7.198H8.59398ZM9.99998 9.282C9.41198 10.457 8.45698 11.411 7.28298 12C8.45698 12.589 9.41198 13.544 9.99998 14.717C10.588 13.542 11.543 12.588 12.717 12C11.542 11.411 10.588 10.457 9.99998 9.282Z"/></svg>

<svg xmlns="http://www.w3.org/2000/svg" width="24" height="24" fill="none"><path fill="currentColor" d="M17 8a1 1 0 0 0 1-1V6h1a1 1 0 0 0 0-2h-1V3a1 1 0 0 0-2 0v1h-1a1 1 0 0 0 0 2h1v1a1 1 0 0 0 1 1m3 11a1 1 0 0 0-1-1h-1v-1a1 1 0 0 0-2 0v1h-1a1 1 0 0 0 0 2h1v1a1 1 0 0 0 2 0v-1h1a1 1 0 0 0 1-1M8.594 7.198c.255-1.6 2.557-1.6 2.813 0a4.09 4.09 0 0 0 3.395 3.395c1.6.255 1.6 2.558 0 2.813a4.09 4.09 0 0 0-3.394 3.395c-.255 1.6-2.558 1.6-2.813 0a4.09 4.09 0 0 0-3.394-3.395c-1.6-.255-1.6-2.558 0-2.813a4.09 4.09 0 0 0 3.394-3.395zM10 9.282A6.1 6.1 0 0 1 7.283 12 6.1 6.1 0 0 1 10 14.717 6.1 6.1 0 0 1 12.717 12 6.1 6.1 0 0 1 10 9.282"/></svg>
